X:500
T:James F Dickie
C:J Murdoch Henderson
B:Flowers of Scottish Melody, 1930
Z:Nigel Gatherer <gatherer:argonet.co.uk> tradtunes 2003-2-14
M:4/4
N:Originally notated in 2/4
L:1/8
K:A
F | E2 cA F2 BA | GBdf e2 cA | E2 cA F2 Bc | dcBA GBAF |
    E2 cA F2 dB | GBdf e2 ca | d2 fa e2 gb | afed cAA ||
g | a2 Aa g2 Ag | fgaf ecea | cA A/A/A fedc | BFBA GBeg |
    agfa gfeg   | fgaf ecea | dcdf     eagb | afed cAA |]
